X:93
T:Ymadawaid Brenin
M:4/4
L:1/8
N:march
O:Mike Raven's airs and dances of Wales
K:G
                                    |:E2G>AB2B2|c2B>AB4|A2GFGABA|G2F2E4:|:e2e2d3c|B>AB>cB2A2|G>AB>cd2ed|c>BA>GG4|G3AB4|F3GA4|EGFEE2^D2|E2G>AB2B2|C2B>AB4|A2GFGABA|GFE4:|
